X:821
T:Fear A Phige #2
C:Joe Buchanan's Scottish Tome - Page 396.2
I:396 2
Z:Carl Allison
R:Strathspey
S:Strathspey, Hornpipe and Highland Schottische
L:1/8
M:2/4
K:A
"A"A>A c>e "A"A>A c>e | "A"A>A c>A "D"F2 "E"E2 | "A"A>A F>A "A"A>A c>e | "A"A>A c>A "E7"B2 B2 |
"A"A>A c>e "A"A>A c>e | "A"A>A c>A "D"F2 "E"E2 | "A"A>A c>e "F#m"e>c c>A | "E7"B<B c>B "A"A2 A2 :|
"D"A>A A>A "A"A>A A>A | "A"A>A A>A "D"F2 "E"E2 | "A"A>A A>A "A"A>A A>A | "F#m"A>A c>A "E7"B2 B2 |
"A"A>A A>A "A"A>A A>A | "A"A>A A>A "D"F2 "E"E2 | "A"A>A A>A "F#m"f>e c>A | "E7"B<B c>B "E"(A2 A2) :|
